!!!OTL: 4. Dobranoch
!!!Genre:	Dobranoch
!!!Mode:	Freygish
!!!Listening/dance:	listening
!!!:	*C:
!!!One_Mode:	no
!!!Orig_tonic: E
**kern
*thru
*I"P1
*clefG2
*k[b-e-a-]
*C:
!LO:TX:a:i:t=C-major
=17!|:
*k[]
4.cc
8g
8ccL
8ddJ
=18
4ee
4dd
4cc
=19
4dd
(8qee/
4dd)
(8qee/
4dd)
=20
4dd
4b
4g
=21
4.cc
8g
8ccL
8ddJ
=22
8eeL
8eeJ
4dd
4cc
=23
2.dd
=24
2.gg
*>B
=25:|!
*k[]
4.cc
8g
8ccL
8ddJ
=18
4ee
4dd
4cc
=19
4dd
(8qee/
4dd)
(8qee/
4dd)
=20
4dd
4b
4g
=21
4.cc
8g
8ccL
8ddJ
=22
8eeL
8eeJ
4dd
4cc
=23
2.dd
=24
2.gg
*>C
!!!End-Modulation
*-
